Newaita-dark/.places-mint/32/folder-favorites.svg

<?xml version="1.0" encoding="UTF-8"?>
<svg xmlns="http://www.w3.org/2000/svg" xmlns:xlink="http://www.w3.org/1999/xlink" width="32px" height="32px" viewBox="0 0 32 32" version="1.1">
<defs>
<linearGradient id="linear0" gradientUnits="userSpaceOnUse" x1="254" y1="233.5" x2="254" y2="254.666672" gradientTransform="matrix(0.062506,0,0,0.062506,-0.00000381506,13.438787)">
<stop offset="0" style="stop-color:rgb(0%,0%,0%);stop-opacity:0.27451;"/>
<stop offset="1" style="stop-color:rgb(0%,0%,0%);stop-opacity:0;"/>
</linearGradient>
<radialGradient id="radial0" gradientUnits="userSpaceOnUse" cx="450.908936" cy="189.579361" fx="450.908936" fy="189.579361" r="21.166656" gradientTransform="matrix(0.00000017417,-0.0781325,-0.140638,-0.000000101539,54.115213,63.595334)">
<stop offset="0" style="stop-color:rgb(0%,0%,0%);stop-opacity:0.313726;"/>
<stop offset="0.222222" style="stop-color:rgb(0%,0%,0%);stop-opacity:0.27451;"/>
<stop offset="1" style="stop-color:rgb(0%,0%,0%);stop-opacity:0;"/>
</radialGradient>
<radialGradient id="radial1" gradientUnits="userSpaceOnUse" cx="450.908936" cy="189.579361" fx="450.908936" fy="189.579361" r="21.166656" gradientTransform="matrix(-0.00000017417,0.0781325,0.140638,0.000000101539,-22.362178,-7.527477)">
<stop offset="0" style="stop-color:rgb(0%,0%,0%);stop-opacity:0.313726;"/>
<stop offset="0.222222" style="stop-color:rgb(0%,0%,0%);stop-opacity:0.27451;"/>
<stop offset="1" style="stop-color:rgb(0%,0%,0%);stop-opacity:0;"/>
</radialGradient>
<radialGradient id="radial2" gradientUnits="userSpaceOnUse" cx="450.908936" cy="189.579361" fx="450.908936" fy="189.579361" r="21.166656" gradientTransform="matrix(-0.00000017417,-0.0781325,0.140638,-0.000000101539,-22.362178,63.595334)">
<stop offset="0" style="stop-color:rgb(0%,0%,0%);stop-opacity:0.313726;"/>
<stop offset="0.222222" style="stop-color:rgb(0%,0%,0%);stop-opacity:0.27451;"/>
<stop offset="1" style="stop-color:rgb(0%,0%,0%);stop-opacity:0;"/>
</radialGradient>
<radialGradient id="radial3" gradientUnits="userSpaceOnUse" cx="450.908936" cy="189.579361" fx="450.908936" fy="189.579361" r="21.166656" gradientTransform="matrix(0.00000017417,0.0781325,-0.140638,0.000000101539,54.115211,-7.527477)">
<stop offset="0" style="stop-color:rgb(0%,0%,0%);stop-opacity:0.313726;"/>
<stop offset="0.222222" style="stop-color:rgb(0%,0%,0%);stop-opacity:0.27451;"/>
<stop offset="1" style="stop-color:rgb(0%,0%,0%);stop-opacity:0;"/>
</radialGradient>
<linearGradient id="linear1" gradientUnits="userSpaceOnUse" x1="254" y1="-147.5" x2="254" y2="-31.083334" gradientTransform="matrix(0.062506,0,0,0.062506,0.00000124975,13.438781)">
<stop offset="0" style="stop-color:rgb(64.313728%,64.313728%,64.313728%);stop-opacity:0;"/>
<stop offset="1" style="stop-color:rgb(100%,100%,100%);stop-opacity:0.196078;"/>
</linearGradient>
<linearGradient id="linear2" gradientUnits="userSpaceOnUse" x1="254" y1="233.5" x2="254" y2="-105.166656" gradientTransform="matrix(0.062506,0,0,0.062506,-0.00000181239,13.438783)">
<stop offset="0" style="stop-color:rgb(34.509805%,34.509805%,34.509805%);stop-opacity:0;"/>
<stop offset="1" style="stop-color:rgb(98.039216%,98.039216%,98.039216%);stop-opacity:0.196078;"/>
</linearGradient>
</defs>
<g id="surface1">
<path style=" stroke:none;fill-rule:nonzero;fill:url(#linear0);" d="M 3.96875 28.035156 L 27.785156 28.035156 L 27.785156 29.355469 L 3.96875 29.355469 Z M 3.96875 28.035156 "/>
<path style=" stroke:none;fill-rule:nonzero;fill:url(#radial0);" d="M 27.785156 28.035156 L 30.429688 28.035156 L 30.429688 26.710938 L 27.785156 26.710938 Z M 27.785156 28.035156 "/>
<path style=" stroke:none;fill-rule:nonzero;fill:url(#radial1);" d="M 3.96875 28.035156 L 1.324219 28.035156 L 1.324219 29.355469 L 3.96875 29.355469 Z M 3.96875 28.035156 "/>
<path style=" stroke:none;fill-rule:nonzero;fill:url(#radial2);" d="M 3.96875 28.035156 L 1.324219 28.035156 L 1.324219 26.710938 L 3.96875 26.710938 Z M 3.96875 28.035156 "/>
<path style=" stroke:none;fill-rule:nonzero;fill:url(#radial3);" d="M 27.785156 28.035156 L 30.429688 28.035156 L 30.429688 29.355469 L 27.785156 29.355469 Z M 27.785156 28.035156 "/>
<path style=" stroke:none;fill-rule:nonzero;fill:rgb(61.176473%,80.000001%,39.607844%);fill-opacity:1;" d="M 7.277344 4.21875 L 28.777344 4.21875 C 29.507812 4.21875 30.097656 4.8125 30.097656 5.542969 L 30.097656 10.503906 C 30.097656 11.234375 29.507812 11.828125 28.777344 11.828125 L 7.277344 11.828125 C 6.546875 11.828125 5.953125 11.234375 5.953125 10.503906 L 5.953125 5.542969 C 5.953125 4.8125 6.546875 4.21875 7.277344 4.21875 Z M 7.277344 4.21875 "/>
<path style=" stroke:none;fill-rule:nonzero;fill:url(#linear1);" d="M 7.277344 4.21875 L 28.777344 4.21875 C 29.507812 4.21875 30.097656 4.8125 30.097656 5.542969 L 30.097656 10.503906 C 30.097656 11.234375 29.507812 11.828125 28.777344 11.828125 L 7.277344 11.828125 C 6.546875 11.828125 5.953125 11.234375 5.953125 10.503906 L 5.953125 5.542969 C 5.953125 4.8125 6.546875 4.21875 7.277344 4.21875 Z M 7.277344 4.21875 "/>
<path style=" stroke:none;fill-rule:nonzero;fill:rgb(90.196079%,90.196079%,90.196079%);fill-opacity:0.392157;" d="M 7.277344 4.304688 C 6.542969 4.304688 5.953125 4.894531 5.953125 5.628906 L 5.953125 5.792969 C 5.953125 5.0625 6.542969 4.472656 7.277344 4.472656 L 28.777344 4.472656 C 29.507812 4.472656 30.097656 5.0625 30.097656 5.792969 L 30.097656 5.628906 C 30.097656 4.894531 29.507812 4.304688 28.777344 4.304688 Z M 7.277344 4.304688 "/>
<path style=" stroke:none;fill-rule:nonzero;fill:rgb(12.941177%,12.941177%,12.941177%);fill-opacity:1;" d="M 7.277344 4.125 C 6.492188 4.125 5.859375 4.757812 5.859375 5.542969 L 5.859375 10.503906 C 5.859375 11.285156 6.492188 11.921875 7.277344 11.921875 L 28.777344 11.921875 C 29.558594 11.921875 30.191406 11.285156 30.191406 10.503906 L 30.191406 5.542969 C 30.191406 4.757812 29.558594 4.125 28.777344 4.125 Z M 7.277344 4.3125 L 28.777344 4.3125 C 29.457031 4.3125 30.003906 4.859375 30.003906 5.542969 L 30.003906 10.503906 C 30.003906 11.1875 29.457031 11.734375 28.777344 11.734375 L 7.277344 11.734375 C 6.59375 11.734375 6.046875 11.1875 6.046875 10.503906 L 6.046875 5.542969 C 6.046875 4.859375 6.59375 4.3125 7.277344 4.3125 Z M 7.277344 4.3125 "/>
<path style=" stroke:none;fill-rule:nonzero;fill:rgb(68.235296%,83.529413%,50.588238%);fill-opacity:1;" d="M 2.644531 6.863281 C 1.914062 6.863281 1.324219 7.457031 1.324219 8.1875 L 1.324219 26.710938 C 1.324219 27.445312 1.914062 28.035156 2.644531 28.035156 L 29.105469 28.035156 C 29.839844 28.035156 30.429688 27.445312 30.429688 26.710938 L 30.429688 10.171875 L 12.570312 10.171875 C 11.835938 10.171875 11.246094 9.582031 11.246094 8.851562 L 11.246094 6.863281 Z M 2.644531 6.863281 "/>
<path style=" stroke:none;fill-rule:nonzero;fill:url(#linear2);" d="M 2.644531 6.863281 C 1.914062 6.863281 1.324219 7.457031 1.324219 8.1875 L 1.324219 26.710938 C 1.324219 27.445312 1.914062 28.035156 2.644531 28.035156 L 29.105469 28.035156 C 29.839844 28.035156 30.429688 27.445312 30.429688 26.710938 L 30.429688 10.171875 L 12.570312 10.171875 C 11.835938 10.171875 11.246094 9.582031 11.246094 8.851562 L 11.246094 6.863281 Z M 2.644531 6.863281 "/>
<path style=" stroke:none;fill-rule:nonzero;fill:rgb(0%,0%,0%);fill-opacity:0.196078;" d="M 2.644531 28.035156 C 1.914062 28.035156 1.324219 27.445312 1.324219 26.710938 L 1.324219 26.546875 C 1.324219 27.277344 1.914062 27.867188 2.644531 27.867188 L 29.105469 27.867188 C 29.839844 27.867188 30.429688 27.277344 30.429688 26.546875 L 30.429688 26.710938 C 30.429688 27.445312 29.839844 28.035156 29.105469 28.035156 Z M 2.644531 28.035156 "/>
<path style=" stroke:none;fill-rule:nonzero;fill:rgb(90.196079%,90.196079%,90.196079%);fill-opacity:0.392157;" d="M 2.644531 6.949219 C 1.914062 6.949219 1.324219 7.539062 1.324219 8.269531 L 1.324219 8.4375 C 1.324219 7.703125 1.914062 7.113281 2.644531 7.113281 L 11.246094 7.113281 L 11.246094 6.949219 Z M 2.644531 6.949219 "/>
<path style=" stroke:none;fill-rule:nonzero;fill:rgb(90.196079%,90.196079%,90.196079%);fill-opacity:0.392157;" d="M 12.484375 10.339844 C 11.753906 10.339844 11.164062 9.75 11.164062 9.015625 L 11.164062 8.851562 C 11.164062 9.582031 11.753906 10.175781 12.484375 10.171875 L 30.429688 10.171875 L 30.429688 10.339844 Z M 12.484375 10.339844 "/>
<path style=" stroke:none;fill-rule:nonzero;fill:rgb(12.941177%,12.941177%,12.941177%);fill-opacity:1;" d="M 2.644531 6.769531 C 1.863281 6.769531 1.230469 7.40625 1.230469 8.1875 L 1.230469 26.710938 C 1.230469 27.496094 1.863281 28.128906 2.644531 28.128906 L 29.105469 28.128906 C 29.890625 28.128906 30.523438 27.496094 30.523438 26.710938 L 30.523438 9.984375 L 12.570312 9.984375 C 11.886719 9.984375 11.339844 9.4375 11.339844 8.757812 L 11.339844 6.769531 Z M 2.644531 6.960938 L 11.152344 6.960938 L 11.152344 8.757812 C 11.152344 9.539062 11.785156 10.171875 12.570312 10.171875 L 30.335938 10.171875 L 30.335938 26.710938 C 30.335938 27.394531 29.789062 27.941406 29.105469 27.941406 L 2.644531 27.941406 C 1.964844 27.941406 1.417969 27.394531 1.417969 26.710938 L 1.417969 8.1875 C 1.417969 7.503906 1.964844 6.960938 2.644531 6.960938 Z M 2.644531 6.960938 "/>
<path style=" stroke:none;fill-rule:nonzero;fill:rgb(54.509807%,76.47059%,29.019609%);fill-opacity:1;" d="M 15.875 13.054688 C 16.507812 13.054688 17.050781 15.988281 17.5625 16.359375 C 18.074219 16.730469 21.03125 16.34375 21.222656 16.941406 C 21.417969 17.539062 18.800781 18.964844 18.605469 19.566406 C 18.410156 20.164062 19.691406 22.859375 19.179688 23.226562 C 18.671875 23.597656 16.507812 21.546875 15.875 21.546875 C 15.246094 21.546875 13.082031 23.597656 12.570312 23.226562 C 12.0625 22.859375 13.34375 20.164062 13.148438 19.566406 C 12.953125 18.964844 10.332031 17.539062 10.527344 16.941406 C 10.722656 16.34375 13.679688 16.730469 14.191406 16.359375 C 14.699219 15.988281 15.246094 13.054688 15.875 13.054688 Z M 15.875 13.054688 "/>
<path style=" stroke:none;fill-rule:nonzero;fill:rgb(0%,0%,0%);fill-opacity:0.235294;" d="M 15.875 13.054688 C 15.246094 13.054688 14.699219 15.988281 14.191406 16.359375 C 13.679688 16.730469 10.722656 16.34375 10.527344 16.941406 C 10.507812 17.003906 10.519531 17.074219 10.550781 17.152344 C 10.894531 16.621094 13.695312 16.976562 14.191406 16.617188 C 14.699219 16.246094 15.246094 13.316406 15.875 13.316406 C 16.507812 13.316406 17.050781 16.246094 17.5625 16.617188 C 18.058594 16.976562 20.859375 16.621094 21.199219 17.152344 C 21.234375 17.074219 21.246094 17.003906 21.222656 16.941406 C 21.03125 16.34375 18.074219 16.730469 17.5625 16.359375 C 17.050781 15.988281 16.507812 13.054688 15.875 13.054688 Z M 18.59375 19.871094 C 18.496094 20.402344 19.21875 22.101562 19.296875 22.984375 C 19.378906 22.316406 18.679688 20.65625 18.59375 19.871094 Z M 13.160156 19.871094 C 13.070312 20.65625 12.375 22.316406 12.457031 22.984375 C 12.535156 22.101562 13.257812 20.402344 13.160156 19.871094 Z M 13.160156 19.871094 "/>
<path style=" stroke:none;fill-rule:nonzero;fill:rgb(100%,100%,100%);fill-opacity:0.392157;" d="M 21.199219 17.152344 C 20.90625 17.824219 18.777344 19.027344 18.605469 19.566406 C 18.582031 19.636719 18.578125 19.742188 18.59375 19.871094 C 18.597656 19.855469 18.601562 19.839844 18.605469 19.824219 C 18.800781 19.226562 21.417969 17.800781 21.222656 17.199219 C 21.21875 17.183594 21.210938 17.167969 21.199219 17.152344 Z M 10.550781 17.152344 C 10.542969 17.167969 10.535156 17.183594 10.527344 17.199219 C 10.332031 17.800781 12.953125 19.226562 13.148438 19.824219 C 13.152344 19.839844 13.15625 19.855469 13.160156 19.871094 C 13.175781 19.742188 13.171875 19.636719 13.148438 19.566406 C 12.972656 19.027344 10.847656 17.824219 10.550781 17.152344 Z M 15.875 21.546875 C 15.246094 21.546875 13.082031 23.597656 12.570312 23.226562 C 12.507812 23.179688 12.472656 23.097656 12.457031 22.984375 C 12.4375 23.226562 12.464844 23.410156 12.570312 23.488281 C 13.082031 23.859375 15.246094 21.804688 15.875 21.804688 C 16.507812 21.804688 18.671875 23.859375 19.179688 23.488281 C 19.289062 23.410156 19.316406 23.226562 19.296875 22.984375 C 19.28125 23.097656 19.246094 23.179688 19.179688 23.226562 C 18.671875 23.597656 16.507812 21.546875 15.875 21.546875 Z M 15.875 21.546875 "/>
<path style="fill:none;stroke-width:3;stroke-linecap:round;stroke-linejoin:miter;stroke:rgb(12.941177%,12.941177%,12.941177%);stroke-opacity:1;stroke-miterlimit:4;" d="M 253.975747 -6.144945 C 264.09978 -6.144945 272.78645 40.788073 280.973168 46.725007 C 289.159887 52.66194 336.467869 46.47503 339.530076 56.036617 C 342.654778 65.598204 300.783777 88.408526 297.659075 98.032607 C 294.534373 107.594194 315.032416 150.715076 306.845698 156.589515 C 298.721474 162.526448 264.09978 129.717081 253.975747 129.717081 C 243.914207 129.717081 209.292514 162.526448 201.105795 156.589515 C 192.981571 150.715076 213.479614 107.594194 210.354912 98.032607 C 207.230211 88.408526 165.296715 65.598204 168.421417 56.036617 C 171.546118 46.47503 218.8541 52.66194 227.040819 46.725007 C 235.165043 40.788073 243.914207 -6.144945 253.975747 -6.144945 Z M 253.975747 -6.144945 " transform="matrix(0.062506,0,0,0.062506,0,13.438783)"/>
</g>
</svg>

<svg xmlns="http://www.w3.org/2000/svg" width="32" height="32"><defs><linearGradient id="a" gradientUnits="userSpaceOnUse" x1="254" y1="233.5" x2="254" y2="254.667" gradientTransform="matrix(.0625 0 0 .0625 0 13.439)"><stop offset="0" stop-opacity=".275"/><stop offset="1" stop-opacity="0"/></linearGradient><radialGradient id="b" gradientUnits="userSpaceOnUse" cx="450.909" cy="189.579" fx="450.909" fy="189.579" r="21.167" gradientTransform="matrix(0 -.07813 -.14064 0 54.115 63.595)"><stop offset="0" stop-opacity=".314"/><stop offset=".222" stop-opacity=".275"/><stop offset="1" stop-opacity="0"/></radialGradient><radialGradient id="c" gradientUnits="userSpaceOnUse" cx="450.909" cy="189.579" fx="450.909" fy="189.579" r="21.167" gradientTransform="matrix(0 .07813 .14064 0 -22.362 -7.527)"><stop offset="0" stop-opacity=".314"/><stop offset=".222" stop-opacity=".275"/><stop offset="1" stop-opacity="0"/></radialGradient><radialGradient id="d" gradientUnits="userSpaceOnUse" cx="450.909" cy="189.579" fx="450.909" fy="189.579" r="21.167" gradientTransform="matrix(0 -.07813 .14064 0 -22.362 63.595)"><stop offset="0" stop-opacity=".314"/><stop offset=".222" stop-opacity=".275"/><stop offset="1" stop-opacity="0"/></radialGradient><radialGradient id="e" gradientUnits="userSpaceOnUse" cx="450.909" cy="189.579" fx="450.909" fy="189.579" r="21.167" gradientTransform="matrix(0 .07813 -.14064 0 54.115 -7.527)"><stop offset="0" stop-opacity=".314"/><stop offset=".222" stop-opacity=".275"/><stop offset="1" stop-opacity="0"/></radialGradient><linearGradient id="f" gradientUnits="userSpaceOnUse" x1="254" y1="-147.5" x2="254" y2="-31.083" gradientTransform="matrix(.0625 0 0 .0625 0 13.439)"><stop offset="0" stop-color="#a4a4a4" stop-opacity="0"/><stop offset="1" stop-color="#fff" stop-opacity=".196"/></linearGradient><linearGradient id="g" gradientUnits="userSpaceOnUse" x1="254" y1="233.5" x2="254" y2="-105.167" gradientTransform="matrix(.0625 0 0 .0625 0 13.439)"><stop offset="0" stop-color="#585858" stop-opacity="0"/><stop offset="1" stop-color="#fafafa" stop-opacity=".196"/></linearGradient><linearGradient id="h" gradientUnits="userSpaceOnUse" x1="254" y1="-147.5" x2="254" y2="233.5" gradientTransform="matrix(.0625 0 0 .0625 0 13.439)"><stop offset="0" stop-color="#a4a4a4" stop-opacity="0"/><stop offset="1" stop-color="#fff" stop-opacity=".196"/></linearGradient></defs><path d="M3.969 28.035h23.816v1.32H3.97zm0 0" fill="url(#a)"/><path d="M27.785 28.035h2.645v-1.324h-2.645zm0 0" fill="url(#b)"/><path d="M3.969 28.035H1.324v1.32H3.97zm0 0" fill="url(#c)"/><path d="M3.969 28.035H1.324v-1.324H3.97zm0 0" fill="url(#d)"/><path d="M27.785 28.035h2.645v1.32h-2.645zm0 0" fill="url(#e)"/><path d="M7.277 4.219h21.5c.73 0 1.32.593 1.32 1.324v4.96c0 .731-.59 1.325-1.32 1.325h-21.5c-.73 0-1.324-.594-1.324-1.324V5.543c0-.73.594-1.324 1.324-1.324zm0 0" fill="#7cb342"/><path d="M7.277 4.219h21.5c.73 0 1.32.593 1.32 1.324v4.96c0 .731-.59 1.325-1.32 1.325h-21.5c-.73 0-1.324-.594-1.324-1.324V5.543c0-.73.594-1.324 1.324-1.324zm0 0" fill="url(#f)"/><path d="M7.277 4.219a1.32 1.32 0 0 0-1.324 1.324v.164c0-.734.59-1.324 1.324-1.324h21.5c.73 0 1.32.59 1.32 1.324v-.164a1.32 1.32 0 0 0-1.32-1.324zm0 0" fill="#e6e6e6" fill-opacity=".588"/><path d="M7.277 4.125c-.785 0-1.418.633-1.418 1.418v4.96c0 .782.633 1.419 1.418 1.419h21.5c.782 0 1.414-.637 1.414-1.418V5.543c0-.785-.632-1.418-1.414-1.418zm0 .188h21.5c.68 0 1.227.546 1.227 1.23v4.96c0 .684-.547 1.231-1.227 1.231h-21.5c-.683 0-1.23-.546-1.23-1.23V5.543c0-.684.547-1.23 1.23-1.23zm0 0" fill="#212121"/><path d="M2.645 6.863c-.73 0-1.32.594-1.32 1.324v18.524c0 .734.59 1.324 1.32 1.324h26.46a1.32 1.32 0 0 0 1.325-1.324V10.17H12.57a1.32 1.32 0 0 1-1.324-1.32V6.864zm0 0" fill="#9ccc65"/><path d="M2.645 6.863c-.73 0-1.32.594-1.32 1.324v18.524c0 .734.59 1.324 1.32 1.324h26.46a1.32 1.32 0 0 0 1.325-1.324V10.17H12.57a1.32 1.32 0 0 1-1.324-1.32V6.864zm0 0" fill="url(#g)"/><path d="M2.645 28.035c-.73 0-1.32-.59-1.32-1.324v-.164c0 .73.59 1.32 1.32 1.32h26.46a1.32 1.32 0 0 0 1.325-1.32v.164a1.32 1.32 0 0 1-1.325 1.324zm0 0" fill-opacity=".196"/><path d="M2.645 6.863c-.73 0-1.32.594-1.32 1.324v.168c0-.734.59-1.324 1.32-1.324h8.601v-.168zm0 0M12.484 10.254c-.73 0-1.32-.59-1.32-1.32v-.168c0 .734.59 1.324 1.32 1.324H30.43v.164zm0 0" fill="#e6e6e6" fill-opacity=".937"/><path d="M2.645 6.77c-.782 0-1.415.636-1.415 1.418V26.71c0 .785.633 1.418 1.415 1.418h26.46c.786 0 1.418-.633 1.418-1.418V9.984H12.57c-.683 0-1.23-.546-1.23-1.226V6.77zm0 .19h8.507v1.798c0 .781.633 1.414 1.418 1.414h17.766V26.71c0 .684-.547 1.23-1.23 1.23H2.644c-.68 0-1.227-.546-1.227-1.23V8.188c0-.684.547-1.227 1.227-1.227zm0 0" fill="#212121"/><path d="M15.875 13.055c.633 0 1.176 2.933 1.688 3.304.511.371 3.468-.015 3.66.582.195.598-2.422 2.024-2.618 2.625-.195.598 1.086 3.293.575 3.66-.508.372-2.672-1.68-3.305-1.68-.629 0-2.793 2.052-3.305 1.68-.508-.367.774-3.062.578-3.66-.195-.601-2.816-2.027-2.62-2.625.195-.597 3.152-.21 3.663-.582.508-.37 1.055-3.304 1.684-3.304zm0 0" fill="#7cb342"/><path d="M15.875 13.055c.633 0 1.176 2.933 1.688 3.304.511.371 3.468-.015 3.66.582.195.598-2.422 2.024-2.618 2.625-.195.598 1.086 3.293.575 3.66-.508.372-2.672-1.68-3.305-1.68-.629 0-2.793 2.052-3.305 1.68-.508-.367.774-3.062.578-3.66-.195-.601-2.816-2.027-2.62-2.625.195-.597 3.152-.21 3.663-.582.508-.37 1.055-3.304 1.684-3.304zm0 0" fill="url(#h)"/><path d="M15.875 12.96c-.113 0-.215.067-.3.157a1.64 1.64 0 0 0-.24.36c-.151.289-.296.668-.437 1.058-.136.39-.273.793-.406 1.117-.129.32-.27.567-.355.63-.086.062-.367.12-.711.148-.348.023-.774.027-1.188.039-.414.015-.82.031-1.144.09-.16.027-.301.062-.414.117-.114.05-.203.129-.239.238-.039.11-.007.223.055.332.059.11.152.223.266.34.226.234.547.488.875.742.328.254.664.508.933.73.266.223.457.434.489.536.035.101.004.383-.082.722-.082.336-.207.743-.325 1.141-.117.398-.222.79-.27 1.113-.023.16-.034.305-.019.43.016.125.059.234.153.305.093.066.21.074.336.05.12-.023.257-.078.402-.148.297-.145.637-.371.976-.602.344-.234.688-.48.985-.664.297-.183.555-.3.66-.3.11 0 .367.117.664.3.293.184.64.43.98.664.344.23.684.457.977.602.149.07.281.125.406.148.121.024.243.016.336-.05.09-.07.133-.18.149-.305.015-.125.008-.27-.016-.43a8.577 8.577 0 0 0-.27-1.113c-.117-.398-.242-.805-.328-1.14-.082-.34-.113-.622-.078-.723.032-.102.223-.313.489-.535.265-.223.605-.477.933-.73a9.07 9.07 0 0 0 .875-.743 1.62 1.62 0 0 0 .266-.34c.058-.11.09-.223.055-.332-.036-.11-.13-.187-.243-.238a1.537 1.537 0 0 0-.414-.117c-.32-.059-.726-.075-1.14-.09-.418-.012-.84-.016-1.188-.04-.348-.027-.625-.085-.71-.148-.087-.062-.227-.308-.36-.629-.13-.324-.266-.726-.406-1.117a8.22 8.22 0 0 0-.434-1.058 1.795 1.795 0 0 0-.242-.36c-.086-.09-.184-.156-.301-.156zm0 .188c.043 0 .098.028.164.098s.14.18.211.316c.145.274.29.649.426 1.04.14.386.277.789.41 1.12.133.329.254.59.422.712.168.125.453.156.808.18.356.027.782.03 1.192.042.414.016.816.035 1.117.086.152.028.277.059.367.102.086.043.13.086.145.125.011.043.004.101-.043.187a1.406 1.406 0 0 1-.239.297c-.21.223-.527.473-.851.727-.328.25-.668.504-.942.734-.273.23-.484.426-.546.621-.067.2-.008.48.078.824.086.348.21.754.328 1.149.117.398.219.785.265 1.09.02.152.028.28.016.379-.012.097-.043.152-.078.175-.031.024-.094.035-.188.02a1.668 1.668 0 0 1-.359-.133 8.655 8.655 0 0 1-.95-.59c-.343-.234-.687-.476-.991-.668-.305-.187-.551-.328-.762-.328-.207 0-.457.14-.758.328-.305.192-.648.434-.992.668-.34.235-.676.453-.953.59a1.647 1.647 0 0 1-.356.133c-.093.015-.156.004-.191-.02-.031-.023-.063-.078-.074-.175a1.447 1.447 0 0 1 .015-.38c.043-.304.149-.69.266-1.09.117-.394.242-.8.328-1.148.086-.343.14-.625.078-.824-.066-.195-.273-.39-.547-.62-.273-.231-.613-.485-.941-.735-.328-.254-.64-.504-.855-.727a1.504 1.504 0 0 1-.235-.297c-.047-.086-.055-.144-.043-.187.016-.04.055-.082.145-.125.086-.043.215-.074.367-.102.3-.05.703-.07 1.117-.086.41-.011.836-.015 1.191-.043.356-.023.641-.054.81-.18.167-.12.284-.382.421-.71.133-.332.27-.735.41-1.121.137-.391.281-.766.422-1.04.074-.136.145-.246.21-.316.067-.07.126-.098.165-.098zm0 0" fill="#212121"/></svg>
